SVG/hand-grab-o.svg

<?xml version="1.0" encoding="utf-8"?>
<!-- Generated by IcoMoon.io -->
<!DOCTYPE svg PUBLIC "-//W3C//DTD SVG 1.1//EN" "http://www.w3.org/Graphics/SVG/1.1/DTD/svg11.dtd">
<svg version="1.1" xmlns="http://www.w3.org/2000/svg" xmlns:xlink="http://www.w3.org/1999/xlink" width="12" height="14" viewBox="0 0 12 14">
<path fill="#444444" d="M6 3q-0.414 0-0.707 0.293t-0.293 0.707v1h-0.25v-0.727q0-0.375-0.25-0.637t-0.625-0.262q-0.359 0-0.617 0.258t-0.258 0.617v3.352l-0.25-0.234v-1.344q0-0.375-0.25-0.637t-0.625-0.262q-0.359 0-0.617 0.258t-0.258 0.617v1.75q0 0.367 0.273 0.641l2.422 2.313q0.305 0.305 0.305 0.797 0 0.203 0.148 0.352t0.352 0.148h5q0.203 0 0.352-0.148t0.148-0.352v-0.195q0-0.32 0.078-0.602l0.844-3.406q0.078-0.281 0.078-0.602v-1.922q0-0.375-0.25-0.637t-0.625-0.262q-0.359 0-0.617 0.258t-0.258 0.617v0.25h-0.25v-0.977q0-0.312-0.195-0.566t-0.5-0.316q-0.109-0.016-0.18-0.016-0.359 0-0.617 0.258t-0.258 0.617v1h-0.25v-0.953q0-0.398-0.254-0.699t-0.645-0.34q-0.039-0.008-0.102-0.008zM6 2q0.656 0 1.164 0.391 0.445-0.266 0.961-0.266 0.461 0 0.867 0.211t0.672 0.594q0.211-0.055 0.461-0.055 0.781 0 1.328 0.559t0.547 1.34v1.922q0 0.398-0.102 0.844l-0.852 3.406q-0.047 0.187-0.047 0.555 0 0.625-0.438 1.062t-1.062 0.438h-5q-0.656 0-1.078-0.457t-0.422-1.113l-2.406-2.313q-0.594-0.57-0.594-1.367v-1.75q0-0.773 0.551-1.324t1.324-0.551q0.086 0 0.125 0.008 0.047-0.742 0.59-1.25t1.285-0.508q0.406 0 0.766 0.164 0.563-0.539 1.359-0.539z"></path>
</svg>

<svg xmlns="http://www.w3.org/2000/svg" viewBox="0 0 12 14"><path d="M6 3q-.414 0-.707.293T5 4v1h-.25v-.727q0-.375-.25-.637t-.625-.262q-.36 0-.617.258T3 4.25V7.6l-.25-.233V6.023q0-.375-.25-.637t-.625-.262q-.36 0-.617.258T1 6v1.75q0 .366.273.64l2.422 2.313Q4 11.008 4 11.5q0 .203.148.352T4.5 12h5q.203 0 .352-.148T10 11.5v-.195q0-.32.078-.602l.844-3.406q.078-.28.078-.602V4.773q0-.375-.25-.637t-.625-.262q-.36 0-.617.258t-.258.617V5H9V4.02q0-.312-.195-.566t-.5-.316q-.11-.016-.18-.016-.36 0-.617.258T7.25 4v1H7v-.954q0-.398-.254-.7t-.645-.34Q6.063 3 6 3zm0-1q.656 0 1.164.39.445-.265.96-.265.462 0 .868.21t.672.595q.21-.055.46-.055.782 0 1.33.56T12 4.774v1.92q0 .4-.102.845l-.852 3.406Q11 11.133 11 11.5q0 .626-.44 1.063T9.5 13h-5q-.657 0-1.08-.456T3 11.43L.592 9.12Q0 8.548 0 7.75V6q0-.772.55-1.323t1.324-.55q.086 0 .125.007.046-.742.59-1.25t1.284-.508q.406 0 .766.164Q5.203 2 6 2z" /></svg>
